X: 1
T: the Countess of Eglinton's Delight
C: Niel Gow
B: The Gow Collection of Scottish Dance Music #327 (George Carlin ed) 1986
R: jig
Z: 2005 John Chambers <jc:trillian.mit.edu>
%%slurgraces 0
%P: Slowish
M: 6/8
L: 1/8
K: Bb
E \
| "Bb"D{E}FF F2d | "F"c>Bc "Gm"dBG \
| "Bb"D{E}FF F2d | "F"c3 {Bcd}G2z \
| "Bb"D{E}FF F2d | "F"c>Bc "Gm"dBG |
| "Eb"g{a}bg "Bb"fdb | "F"fdB "Bb"B2 :| \
g \
| "Bb"fdf bf_a | "Eb"geg "Bb"fdB \
| "Bb"fdf bf_a | "Eb"g>fg "F7"c2g |
| "Bb"fdf bf_a | "Eb"geg "Bb"fdB \
|1 "Eb"g>ab "Bb"fdB | "F7"FBA "Bb"B2 \
:|2 "Cm"gec "Bb"fdB | "F7"FBA "Bb"B2 |]

%%sep 1 1 500

